flaticon/army-badges/medal-19.svg

<svg xmlns="http://www.w3.org/2000/svg" width="32" height="32" viewBox="0 0 24 24">
    <path d="M 8.398438 18.800781 C 8.398438 19.039062 8.558594 19.199219 8.800781 19.199219 C 9.039062 19.199219 9.199219 19.039062 9.199219 18.800781 C 9.199219 17.238281 10.441406 16 12 16 C 12.238281 16 12.398438 15.839844 12.398438 15.601562 C 12.398438 15.359375 12.238281 15.199219 12 15.199219 C 10 15.199219 8.398438 16.800781 8.398438 18.800781 Z M 8.398438 18.800781"/>
    <path d="M 16.398438 6.800781 L 16.398438 2.800781 L 16.800781 2.800781 C 17.039062 2.800781 17.199219 2.640625 17.199219 2.398438 L 17.199219 0.398438 C 17.199219 0.160156 17.039062 0 16.800781 0 L 7.199219 0 C 6.960938 0 6.800781 0.160156 6.800781 0.398438 L 6.800781 2.398438 C 6.800781 2.640625 6.960938 2.800781 7.199219 2.800781 L 7.601562 2.800781 L 7.601562 9.199219 L 7.199219 9.199219 C 6.960938 9.199219 6.800781 9.359375 6.800781 9.601562 L 6.800781 11.601562 C 6.800781 11.839844 6.960938 12 7.199219 12 L 10.617188 12 C 10.480469 12.234375 10.398438 12.507812 10.398438 12.800781 C 10.398438 13.160156 10.519531 13.488281 10.71875 13.757812 C 8.460938 14.324219 6.800781 16.363281 6.800781 18.800781 C 6.800781 21.679688 9.121094 24 12 24 C 14.878906 24 17.199219 21.679688 17.199219 18.800781 C 17.199219 16.363281 15.539062 14.324219 13.28125 13.757812 C 13.480469 13.488281 13.601562 13.160156 13.601562 12.800781 C 13.601562 12.507812 13.519531 12.234375 13.382812 12 L 16.800781 12 C 17.039062 12 17.199219 11.839844 17.199219 11.601562 L 17.199219 9.601562 C 17.199219 9.359375 17.039062 9.199219 16.800781 9.199219 L 16.398438 9.199219 Z M 15.601562 4.800781 L 8.398438 4.800781 L 8.398438 4 L 15.601562 4 Z M 8.398438 5.601562 L 15.601562 5.601562 L 15.601562 6.398438 L 8.398438 6.398438 Z M 8.398438 7.199219 L 15.601562 7.199219 L 15.601562 8 L 8.398438 8 Z M 7.601562 0.800781 L 16.398438 0.800781 L 16.398438 2 L 16 2 L 16 1.601562 C 16 1.359375 15.839844 1.199219 15.601562 1.199219 L 8.398438 1.199219 C 8.160156 1.199219 8 1.359375 8 1.601562 L 8 2 L 7.601562 2 Z M 8.800781 2.398438 L 8.800781 2 L 15.199219 2 L 15.199219 2.398438 C 15.199219 2.640625 15.359375 2.800781 15.601562 2.800781 L 15.601562 3.199219 L 8.398438 3.199219 L 8.398438 2.800781 C 8.640625 2.800781 8.800781 2.640625 8.800781 2.398438 Z M 16.398438 18.800781 C 16.398438 21.238281 14.441406 23.199219 12 23.199219 C 9.558594 23.199219 7.601562 21.199219 7.601562 18.800781 C 7.601562 16.398438 9.558594 14.398438 12 14.398438 C 14.441406 14.398438 16.398438 16.359375 16.398438 18.800781 Z M 12.800781 12.800781 C 12.800781 13.238281 12.441406 13.601562 12 13.601562 C 11.558594 13.601562 11.199219 13.238281 11.199219 12.800781 C 11.199219 12.359375 11.558594 12 12 12 C 12.441406 12 12.800781 12.359375 12.800781 12.800781 Z M 16.398438 11.199219 L 7.601562 11.199219 L 7.601562 10 L 8 10 L 8 10.398438 C 8 10.640625 8.160156 10.800781 8.398438 10.800781 L 15.601562 10.800781 C 15.839844 10.800781 16 10.640625 16 10.398438 L 16 10 L 16.398438 10 Z M 15.199219 9.601562 L 15.199219 10 L 8.800781 10 L 8.800781 9.601562 C 8.800781 9.359375 8.640625 9.199219 8.398438 9.199219 L 8.398438 8.800781 L 15.601562 8.800781 L 15.601562 9.199219 C 15.359375 9.199219 15.199219 9.359375 15.199219 9.601562 Z M 15.199219 9.601562"/>
</svg>

<svg xmlns="http://www.w3.org/2000/svg" width="32" height="32" viewBox="0 0 24 24">
    <path d="M8.398 18.8c0 .24.16.4.403.4.238 0 .398-.16.398-.4C9.2 17.239 10.441 16 12 16c.238 0 .398-.16.398-.398 0-.243-.16-.403-.398-.403-2 0-3.602 1.602-3.602 3.602zm0 0"/>
    <path d="M16.398 6.8v-4h.403c.238 0 .398-.16.398-.402v-2C17.2.16 17.04 0 16.801 0H7.199c-.238 0-.398.16-.398.398v2c0 .243.16.403.398.403h.403v6.398h-.403c-.238 0-.398.16-.398.403v2c0 .238.16.398.398.398h3.418a1.586 1.586 0 0 0 .102 1.758A5.187 5.187 0 0 0 6.8 18.8 5.19 5.19 0 0 0 12 24a5.19 5.19 0 0 0 5.2-5.2 5.187 5.187 0 0 0-3.919-5.042A1.586 1.586 0 0 0 13.383 12H16.8c.238 0 .398-.16.398-.398v-2c0-.243-.16-.403-.398-.403h-.403zm-.796-2H8.398V4h7.204zm-7.204.802h7.204v.796H8.398zm0 1.597h7.204V8H8.398zM7.602.801h8.796V2H16v-.398c0-.243-.16-.403-.398-.403H8.398C8.16 1.2 8 1.36 8 1.602V2h-.398zM8.8 2.398V2h6.398v.398c0 .243.16.403.403.403v.398H8.398v-.398c.243 0 .403-.16.403-.403zm7.597 16.403A4.385 4.385 0 0 1 12 23.199c-2.441 0-4.398-2-4.398-4.398 0-2.403 1.957-4.403 4.398-4.403a4.386 4.386 0 0 1 4.398 4.403zm-3.597-6c0 .437-.36.8-.801.8a.804.804 0 0 1-.8-.8.802.802 0 0 1 1.6 0zm3.597-1.602H7.602V10H8v.398c0 .243.16.403.398.403h7.204c.238 0 .398-.16.398-.403V10h.398zM15.2 9.602V10H8.801v-.398c0-.243-.16-.403-.403-.403v-.398h7.204v.398c-.243 0-.403.16-.403.403zm0 0"/>
</svg>
